**kern	**kern	**dynam
*part1	*part1	*part1
*staff2	*staff1	*
*I"Piano	*	*
*clefF4	*clefG2	*
*k[]	*k[]	*
=1	=1	=1
*	*^	*
4A 4B	(8eeL	4f#X 4b	.
.	8dd#XJ)	.	.
*	*v	*v	*
8r	8re	.
8A	8f# 8b 8dd#	.
=	=	=
8G#X	8e 8b 8ee	>
8G#L	8dnL 8e 8b	.
8AJ	8cJ 8cc	.
[8E [8c	[8B-X [8g#X	]
=	=	=
8E] 8c]	8B-] 8g#]	.
4F 4c	4A 4a	.
8E 8c	8A 8a	.
=	=	=
8D	8B 8f 8g#X	.
16CLL	16cLL 16e 16a	.
16DJJ	16fJJ 16a 16b	.
8EL	8eL 8a 8cc	.
8EJ	8dJ 8e 8g#X	.
=	=	=
4.AA	4.c 4.e 4.a	.
!	!	!LO:DY:a
8r	8cc 8ee	p
=	=	=
2r	8.aL 8.cc	.
.	16eJk 16b	.
.	8cL 8a	.
.	8dJ 8f	.
=	=	=
8r	8cL 8e	.
8F 8A	8BJ 8d	.
8E; 8G#X	8B; 8e	.
8r	8cc 8ee	.
=:|!	=:|!	=:|!
*-	*-	*-
!!!system-decoration: {(s1,s2)}
